X: 136
T: Cantantibus organis – Andante
C: Franciszek Walczyński
%%abc-version 2.0
%%abcx-abcm2ps-target-version 5.9.1 (29 Sep 2008)
%%abc-creator hum2abc beta
%%abcx-conversion-date 2021/10/04 07:38:39
%%abc-edited-by Kamil Watkowski
%%abcx-initial-encoding-date 2021-08-09
%%humdrum-veritas 3631870244
%%humdrum-veritas-data 3687570779
%%linebreak <none>
%%barnumbers 0
L: 1/8
M: 2/4
N: Derived from pl-kozmzk--mzk-m-346--038_walczynski-franciszek--cantantibus-organis-andante.krn
%%staves {1 2}
V: 1 clef=treble
V: 2 clef=bass
K: F
[V:1] A3A & F3E | 
[V:2] z4 & D,A,DC | 
[V:1] GF/G/A2 & D2E2 | 
[V:2] z D!accent!^C2 & B,2A,2 | 
[V:1] A3A & F3E | 
[V:2] z4 & D,A,DC | 
[V:1] GF/G/E2 & D2^C2 | 
[V:2] z DA,2 & B,2A,A,, | 
[V:1] ^F3F & D4- | 
[V:2] z4 & D,A,DC | 
[V:1] GABG & D4- | 
[V:2] z2z B, & B,^F,G,G,, | 
[V:1] F3E & D2^C2 | 
[V:2] A,^G,=G,2 & A,,4 | 
[V:1] D2z2 & D2!accent!=C2 | 
[V:2] F,2G,2 & D,2E,2 | 
[V:1] A3G & F3E | 
[V:2] C4- & F,,C,F,C/B,/ | 
[V:1] cBG2 & FGE2 | 
[V:2] CDC2 & A,G,C2 | 
[V:1] A3G & F3E | 
[V:2] C4- & F,,C,F,C/B,/ | 
[V:1] cBA2 & FG^F2 | 
[V:2] CD-D2 & A,G,D,2 | 
[V:1] B3A & G3^F | 
[V:2] D4- & G,,D,G,D/C/ | 
[V:1] dcA2 & G^FF2 | 
[V:2] D2-D2 & B,A, DD, | 
[V:1] B3A & G3^F | 
[V:2] D4- & G,,D,G,D/C/ | 
[V:1] d^c/d/ e^d/e/ & G4 | 
[V:2] D2^C2 & B,2A,2 | 
[V:1] f3_e & A3^F | 
[V:2] D4- & D,A,D=C | 
[V:1] d^fg=e & GcB2 | 
[V:2] D3^C & B,A,G,2 | 
[V:1] fe/d/e2 & A2-AG | 
[V:2] D2^C2 & A,2A,,2 | 
[V:1] d4 & F^F/G/ GA/B/ | 
[V:2] D=C B,A,/G,/ & D,4- | 
[V:1] d4- & AB/c/ BA/G/ | 
[V:2] ^F,2G,A,/B,/ & D,4- | 
[V:1] d4- & ^FG/E/ FG/E/ | 
[V:2] A,B,/A,/ A,=B,/G,/ & D,4- | 
[V:1] d4- & ^F2GD | 
[V:2] A,2_B,2 & D,4- | 
[V:1] !fermata!d4 & ^F4 |]  
[V:2] A,4 & !fermata!D,4 |]  


